!!!!SEGMENT: pl-wtm--r-1664--001-002_stefani-jozef--okropnosc-czyli-nowa-lafarge-no-1-allegro-moderato.krn
!!!cenid: 18xx:2057
!!!COM: Stefani, Józef
!!!COM-rismID: pe30024097
!!!CDT: 1800/04/16-1876/03/19
!!!CNT: Polish
!!!OPR: Okropność czyli Nowa Lafarge
!!!OTL: No. 1 - Allegro moderato
!!!OMV: 002
!!!PDT:
!!!AGN: Secular
!!!YEC: Copyright 2022 Narodowy Instytut Fryderyka Chopina (https://polishscores.org)
!!!YEM: License CC-BY-4.0 (https://creativecommons.org/licenses/by/4.0)
!!!SMS-siglum: PL-Wtm
!!!SMS-shelfmark: R 1664
!!!SMS-shelfwork: 001-002 M
!!!SMS-variant:
!!!SMS-altvar:
!!!NIFC-rismSourceID: 1001114328
!!!NIFC-rismChildID: 1001114328
!!!NIFC-islandoraID: pl-wtm:27523
!!!URL-pdf-islandora: https://repozytorium.nifc.pl/islandora/object/pl-wtm%3A27523/datastream/PDF/view
!!!URL-scan: https://polish.musicsources.pl/pl/lokalizacje/galeria/rekopisy/6406 @EN{Scan on Polish Music Sources Website} @PL{Skany w portalu Dziedzictwo Muzyki Polskiej w otwartym dostępie}
!!!IIIF:
!!!ONB-nifc: UWAGA: skany 0011-0013
!!!OMD: Allegro moderato
!!!AIN: 1 cello 1 clars 1 cor 3 empty 1 fagot 1 flt 1 oboe 1 timpa 1 tromp 1 tromt 1 viola 1 violn
!!!key:
**kern	**dynam	**kern	**dynam	**kern	**text	**kern	**dynam	**kern	**dynam	**kern	**dynam	**kern	**dynam	**kern	**dynam	**kern	**dynam	**kern	**dynam	**kern	**dynam	**kern	**dynam	**kern	**kern	**dynam
*part14	*	*part13	*	*part12	*	*part11	*	*part10	*	*part9	*	*part8	*	*part7	*	*part6	*	*part5	*	*part4	*	*part3	*	*part2	*part1	*
*staff14	*	*staff13	*	*staff12	*	*staff11	*	*staff10	*	*staff9	*	*staff8	*	*staff7	*	*staff6	*	*staff5	*	*staff4	*	*staff3	*	*staff2	*staff1	*
*Iempty	*	*Icello	*	*Iempty	*	*Iviola	*	*Iempty	*	*Ivioln	*	*Itimpa	*	*Itromt	*	*Itromp	*	*Ifagot	*	*Icor	*	*Iclars	*	*Ioboe	*Iflt	*
*I"C(ontra): Baſsi	*	*I"Violoncelli	*	*I"Szymon	*	*I"Viole	*	*	*	*I"Violini	*	*I"Timpani C. F.	*	*I"Trombone	*	*I"Trombe In C	*	*I"Fagoto	*	*I"Corni in F.	*	*I"Clarinetti in C.	*	*I"Oboe	*I"Flauto	*
*I'cb	*	*I'vlc	*	*I'v h	*	*I'vla	*	*	*	*I'vl	*	*I'timp	*	*I'trb	*	*I'tr in C	*	*I'fag	*	*I'cor in F	*	*I'cl in C	*	*I'ob	*I'fl	*
*clefF4	*	*clefF4	*	*clefG2	*	*clefC3	*	*clefG2	*	*clefG2	*	*clefF4	*	*clefF4	*	*clefG2	*	*clefF4	*	*clefG2	*	*clefG2	*	*clefG2	*clefG2	*
*ITrd0c0	*	*	*	*	*	*	*	*	*	*	*	*	*	*	*	*	*	*	*	*ITrd4c7	*	*	*	*	*	*
*k[b-]	*	*k[b-]	*	*k[b-]	*	*k[b-]	*	*k[b-]	*	*k[b-]	*	*k[]	*	*k[b-]	*	*k[b-]	*	*k[b-]	*	*k[b-]	*	*k[b-]	*	*k[b-]	*k[b-]	*
*F:	*	*F:	*	*F:	*	*F:	*	*F:	*	*F:	*	*F:	*	*F:	*	*F:	*	*F:	*	*F:	*	*F:	*	*F:	*F:	*
*M2/4	*	*M2/4	*	*M2/4	*	*M2/4	*	*M2/4	*	*M2/4	*	*M2/4	*	*M2/4	*	*M2/4	*	*M2/4	*	*M2/4	*	*M2/4	*	*M2/4	*M2/4	*
*>[A,B,C]	*	*>[A,B,C]	*	*>[A,B,C]	*	*>[A,B,C]	*	*>[A,B,C]	*	*>[A,B,C]	*	*>[A,B,C]	*	*>[A,B,C]	*	*>[A,B,C]	*	*>[A,B,C]	*	*>[A,B,C]	*	*>[A,B,C]	*	*>[A,B,C]	*>[A,B,C]	*
*>A	*	*>A	*	*>A	*	*>A	*	*>A	*	*>A	*	*>A	*	*>A	*	*>A	*	*>A	*	*>A	*	*>A	*	*>A	*>A	*
*	*	*	*	*	*	*	*	*2\right	*	*2\right	*	*	*	*	*	*	*	*	*	*	*	*	*	*	*	*
!LO:TX:t=P:problem=all\right&colon; global	!	!LO:TX:t=P:problem=all\right&colon; global	!	!	!	!	!	!	!	!	!	!	!	!	!	!	!	!	!	!	!	!	!	!	!	!
!	!	!	!	!	!	!	!	!	!	!	!	!	!	!LO:TX:t=P:problem=all\right&colon; global	!	!LO:TX:t=P:problem=all\right&colon; global	!	!LO:TX:t=P:problem=all\right&colon; global	!	!LO:TX:t=P:problem=all\right&colon; global	!	!	!	!	!	!
!	!	!	!	!	!	!	!	!	!	!	!	!	!	!	!	!	!	!	!	!	!	!LO:TX:t=P:problem=all\right&colon; global	!	!LO:TX:t=P:problem=all\right&colon; global	!LO:TX:t=P:problem=all\right&colon; global	!
!	!	!	!	!LO:TX:t=P:problem=all\right&colon; global	!	!LO:TX:t=P:problem=all\right&colon; global	!	!	!	!	!	!	!	!	!	!	!	!	!	!	!	!	!	!	!	!
!	!	!	!	!	!	!	!	!LO:TX:t=P:problem=all\right&colon; global	!	!LO:TX:t=P:problem=all\right&colon; global	!	!LO:TX:t=P:problem=all\right&colon; global	!	!	!	!	!	!	!	!	!	!	!	!	!	!
!	!	!	!	!	!	!	!	!	!	!	!	!	!	!	!	!	!	!	!	!	!	!	!	!	!LO:TX:t=P::problem=w źródle klamry przy Violoncelli i C&colon;Baſsi, Violini (violino primo, violino secundo) oraz Flauto i Oboe; reszta głosów pogrupowana w kodzie	!
!	!	!LO:TX:a:t=P::problem=w źródle unison do C(ontra)&colon; Baſsi oznaczony jako //	!	!	!	!	!	!	!	!	!	!LO:TX:t=P:problem=w źródle dźwięki 4F i 4C zapisane przy kluczu przed metrum	!	!	!	!	!	!	!	!	!	!	!	!	!	!
!	!LO:DY:b:rj	!	!LO:DY:b:rj	!	!	!	!	!	!	!	!LO:DY:b:rj	!	!	!	!LO:DY:b:rj	!	!	!	!LO:DY:b:rj	!	!	!	!LO:DY:b:rj	!	!	!LO:DY:b:rj
8F\L	f	8F\Lyy	fyy	4r	.	4r	.	8fL 8A/	.	8ff'>\L	f	4r	.	8F\L	f	8f/L	.	8F'>\L	f	8fL 8A'</	.	8ffL 8a'>\	f	8ff'>\L	8ff'>\L	f
8C\J	.	8C\Jyy	.	.	.	.	.	8eJ 8c/	.	8gg'>\J	.	.	.	8C\J	.	8e/J	.	8C'>\J	.	8gJ 8c'</	.	8eeJ 8cc'>\	.	8gg'>\J	8gg'>\J	.
=1	=1	=1	=1	=1	=1	=1	=1	=1	=1	=1	=1	=1	=1	=1	=1	=1	=1	=1	=1	=1	=1	=1	=1	=1	=1	=1
*	*	*	*	*	*	*	*	*	*	*	*	*	*	*	*	*	*	*	*	*^	*	*	*	*	*	*
!	!	!	!	!	!	!	!	!	!	!	!	!	!	!	!	!	!	!	!	!	!	!	!	!	!LO:TX:a:Bi:t=Col V(iolin)o 1o.	!	!
.	.	.	.	.	.	.	.	.	.	(<32qqff/LLL	.	.	.	.	.	.	.	.	.	.	.	.	.	.	(y<32qqff/LLLyy	(<32qqff/LLL	.
.	.	.	.	.	.	.	.	.	.	32qqgg/JJJ	.	.	.	.	.	.	.	.	.	.	.	.	.	.	32qqgg/JJJyy	32qqgg/JJJ	.
*	*	*	*	*	*	*tremolo	*	*	*	*	*	*tremolo	*	*	*	*	*	*	*	*	*	*	*	*	*	*	*
4F\	.	4F\yy	.	2r	.	32cc\LLL	.	4f 4A/	.	8aa\L)	.	32C/LLL	.	4F\	.	4f/	.	4F\	.	4a/	4f\	.	4ff 4cc\	.	8aa\L)yy	8aa\L)	.
.	.	.	.	.	.	32cc\	.	.	.	.	.	32C/	.	.	.	.	.	.	.	.	.	.	.	.	.	.	.
.	.	.	.	.	.	32cc\	.	.	.	.	.	32C/	.	.	.	.	.	.	.	.	.	.	.	.	.	.	.
.	.	.	.	.	.	32cc\JJ	.	.	.	.	.	32C/JJ	.	.	.	.	.	.	.	.	.	.	.	.	.	.	.
*	*	*	*	*	*	*Xtremolo	*	*	*	*	*	*Xtremolo	*	*	*	*	*	*	*	*	*	*	*	*	*	*	*
!	!	!	!	!	!	!LO:TX:a:t=P:problem=shared beam	!	!	!	!	!	!LO:TX:a:t=P:problem=shared beam	!	!	!	!	!	!	!	!	!	!	!	!	!	!	!
.	.	.	.	.	.	8cc\J	.	.	.	8ff\J	.	8C/J	.	.	.	.	.	.	.	.	.	.	.	.	8ff\Jyy	8ff\J	.
8F\L	.	8F\Lyy	.	.	.	4r	.	8fL 8A/	.	8ff'>\L	.	4r	.	8F\L	.	8f/L	.	8F\L	.	8fL 8B-/	4ryy	.	8ffL 8a'>\	.	8ff'>\Lyy	8ff'>\L	.
8C\J	.	8C\Jyy	.	.	.	.	.	8eJ 8c/	.	8gg'>\J	.	.	.	8C\J	.	8e/J	.	8C\J	.	8gJ 8c/	.	.	8eeJ 8cc'>\	.	8gg'>\Jyy	8gg'>\J	.
=2	=2	=2	=2	=2	=2	=2	=2	=2	=2	=2	=2	=2	=2	=2	=2	=2	=2	=2	=2	=2	=2	=2	=2	=2	=2	=2	=2
!	!	!	!	!	!	!	!	!	!	!	!	!	!	!	!	!	!	!	!	!	!	!	!	!	!	!LO:TX:a:Bi:t=Col V(iolin)o 1o.	!
.	.	.	.	.	.	.	.	.	.	(<32qqff/LLL	.	.	.	.	.	.	.	.	.	.	.	.	.	.	(y<32qqff/LLLyy	(y<32qqff/LLLyy	.
.	.	.	.	.	.	.	.	.	.	32qqgg/JJJ	.	.	.	.	.	.	.	.	.	.	.	.	.	.	32qqgg/JJJyy	32qqgg/JJJyy	.
*	*	*	*	*	*	*tremolo	*	*	*	*	*	*tremolo	*	*	*	*	*	*	*	*	*	*	*	*	*	*	*
4F\	.	4F\yy	.	2r	.	32cc\LLL	.	4f 4A/	.	8aa\L)	.	32C/LLL	.	4F\	.	4f/	.	4F\	.	4a/	4f\	.	4ff 4cc\	.	8aa\L)yy	8aa\L)yy	.
.	.	.	.	.	.	32cc\	.	.	.	.	.	32C/	.	.	.	.	.	.	.	.	.	.	.	.	.	.	.
.	.	.	.	.	.	32cc\	.	.	.	.	.	32C/	.	.	.	.	.	.	.	.	.	.	.	.	.	.	.
.	.	.	.	.	.	32cc\JJ	.	.	.	.	.	32C/JJ	.	.	.	.	.	.	.	.	.	.	.	.	.	.	.
*	*	*	*	*	*	*Xtremolo	*	*	*	*	*	*Xtremolo	*	*	*	*	*	*	*	*	*	*	*	*	*	*	*
!	!	!	!	!	!	!LO:TX:a:t=P:problem=shared beam	!	!	!	!	!	!LO:TX:a:t=P:problem=shared beam	!	!	!	!	!	!	!	!	!	!	!	!	!	!	!
.	.	.	.	.	.	8cc\J	.	.	.	8ff\J	.	8C/J	.	.	.	.	.	.	.	.	.	.	.	.	8ff\Jyy	8ff\Jyy	.
8D\	.	8D\yy	.	.	.	4r	.	8r	.	8ff'>\L	.	4r	.	8D\	.	8f/L	.	8D\	.	8r	8ryy	.	8f/L	.	8ff'>\Lyy	8ff'>\Lyy	.
8r	.	8ryy	.	.	.	.	.	8f 8A/	.	8aa'>\J	.	.	.	8r	.	8a/J	.	8r	.	8a/	8f\	.	8a/J	.	8aa'>\Jyy	8aa'>\Jyy	.
*	*	*	*	*	*	*	*	*	*	*	*	*	*	*	*	*	*	*	*	*v	*v	*	*	*	*	*	*
=3	=3	=3	=3	=3	=3	=3	=3	=3	=3	=3	=3	=3	=3	=3	=3	=3	=3	=3	=3	=3	=3	=3	=3	=3	=3	=3
8BB-/	.	8BB-/yy	.	2r	.	8r	.	8r	.	8dd'>\L	.	4r	.	8BB-/	.	8d/L	.	8BB-/	.	8r	.	8d/L	.	8dd'>\Lyy	8dd'>\Lyy	.
8r	.	8ryy	.	.	.	8d\	.	8gL 8B-/	.	8gg'>\	.	.	.	8r	.	8g/	.	8r	.	8g\L	.	8g/	.	8gg'>\yy	8gg'>\yy	.
8C/L	.	8C/Lyy	.	.	.	8c/L	.	8f 8A/	.	8ff'>\	.	8C/L	.	8C/	.	8f/	.	8C/	.	8a 8f\	.	8f/	.	8ff'>\yy	8ff'>\yy	.
8C/J	.	8C/Jyy	.	.	.	8G/J	.	8eJ 8B-/	.	8ee'>\J	.	8C/J	.	8r	.	8e/J	.	8r	.	8gJ 8c\	.	8e/J	.	8ee'>\Jyy	8ee'>\Jyy	.
!!LO:PB:g=original
=4	=4	=4	=4	=4	=4	=4	=4	=4	=4	=4	=4	=4	=4	=4	=4	=4	=4	=4	=4	=4	=4	=4	=4	=4	=4	=4
8F\	.	8F\yy	.	4r;>	.	8F/	.	8f 8A/	.	8ff\	.	8F\	.	8F\	.	8f/	.	8F\	.	8f 8A/	.	8f/	.	8ff\	8ff\	.
8r;>	.	8r;>yy	.	.	.	8r;>	.	8r;>	.	8r;>	.	8r;>	.	8r;>	.	8r;>	.	8r;>	.	8r;>	.	8r;>	.	8r;>	8r;>	.
=5||	=5||	=5||	=5||	=5||	=5||	=5||	=5||	=5||	=5||	=5||	=5||	=5||	=5||	=5||	=5||	=5||	=5||	=5||	=5||	=5||	=5||	=5||	=5||	=5||	=5||	=5||
*>B	*	*>B	*	*>B	*	*>B	*	*>B	*	*>B	*	*>B	*	*>B	*	*>B	*	*>B	*	*>B	*	*>B	*	*>B	*>B	*
!	!LO:DY:b:rj	!	!LO:DY:b:rj	!	!	!	!	!	!	!	!LO:DY:b:rj	!	!	!	!	!	!	!	!	!	!LO:DY:b:rj	!	!	!	!	!
8F\L	p	8F\Lyy	pyy	8f/	Wszak	4r	.	8fL 8A/	.	8ff'>\L	p	4r	.	4r	.	4r	.	4r	.	8fL 8A/	p	4r	.	4r	4r	.
8C\J	.	8C\Jyy	.	8g/	nam	.	.	8eJ 8c/	.	8gg'>\J	.	.	.	.	.	.	.	.	.	8gJ 8c/	.	.	.	.	.	.
=6	=6	=6	=6	=6	=6	=6	=6	=6	=6	=6	=6	=6	=6	=6	=6	=6	=6	=6	=6	=6	=6	=6	=6	=6	=6	=6
*	*	*	*	*	*	*	*	*	*	*	*	*	*	*	*	*	*	*	*	*^	*	*	*	*	*	*
.	.	.	.	.	.	.	.	.	.	(<32qqff/LLL	.	.	.	.	.	.	.	.	.	.	.	.	.	.	.	.	.
.	.	.	.	.	.	.	.	.	.	32qqgg/JJJ	.	.	.	.	.	.	.	.	.	.	.	.	.	.	.	.	.
*	*	*	*	*	*	*tremolo	*	*	*	*	*	*	*	*	*	*	*	*	*	*	*	*	*	*	*	*	*
!	!	!	!	!	!	!	!LO:DY:b:rj	!	!	!	!	!	!	!	!	!	!	!	!	!	!	!	!	!	!	!	!
4F\	.	4F\yy	.	8a/	he-	32cc\LLL	p	4f 4A/	.	4aa\)	.	2r	.	2r	.	2r	.	2r	.	4a/	4f\	.	2r	.	2r	2r	.
.	.	.	.	.	.	32cc\	.	.	.	.	.	.	.	.	.	.	.	.	.	.	.	.	.	.	.	.	.
.	.	.	.	.	.	32cc\	.	.	.	.	.	.	.	.	.	.	.	.	.	.	.	.	.	.	.	.	.
.	.	.	.	.	.	32cc\JJ	.	.	.	.	.	.	.	.	.	.	.	.	.	.	.	.	.	.	.	.	.
*	*	*	*	*	*	*Xtremolo	*	*	*	*	*	*	*	*	*	*	*	*	*	*	*	*	*	*	*	*	*
!	!	!	!	!	!	!LO:TX:a:t=P:problem=shared beam	!	!	!	!	!	!	!	!	!	!	!	!	!	!	!	!	!	!	!	!	!
.	.	.	.	8f/	-mi-	8cc\J	.	.	.	.	.	.	.	.	.	.	.	.	.	.	.	.	.	.	.	.	.
8F\L	.	8F\Lyy	.	8f/	-ja	4r	.	8fL 8A/	.	8ff'>\L	.	.	.	.	.	.	.	.	.	8fL 8A/	4ryy	.	.	.	.	.	.
8C\J	.	8C\Jyy	.	8g/	wska-	.	.	8eJ 8c/	.	8gg'>\J	.	.	.	.	.	.	.	.	.	8gJ 8c/	.	.	.	.	.	.	.
=7	=7	=7	=7	=7	=7	=7	=7	=7	=7	=7	=7	=7	=7	=7	=7	=7	=7	=7	=7	=7	=7	=7	=7	=7	=7	=7	=7
.	.	.	.	.	.	.	.	.	.	(<32qqff/LLL	.	.	.	.	.	.	.	.	.	.	.	.	.	.	.	.	.
.	.	.	.	.	.	.	.	.	.	32qqgg/JJJ	.	.	.	.	.	.	.	.	.	.	.	.	.	.	.	.	.
*	*	*	*	*	*	*tremolo	*	*	*	*	*	*	*	*	*	*	*	*	*	*	*	*	*	*	*	*	*
4F\	.	4F\yy	.	8a/	-zu-	32cc\LLL	.	4f 4A/	.	4aa\)	.	2r	.	2r	.	2r	.	2r	.	4a/	4f\	.	4r	.	2r	4r	.
.	.	.	.	.	.	32cc\	.	.	.	.	.	.	.	.	.	.	.	.	.	.	.	.	.	.	.	.	.
.	.	.	.	.	.	32cc\	.	.	.	.	.	.	.	.	.	.	.	.	.	.	.	.	.	.	.	.	.
.	.	.	.	.	.	32cc\JJ	.	.	.	.	.	.	.	.	.	.	.	.	.	.	.	.	.	.	.	.	.
*	*	*	*	*	*	*Xtremolo	*	*	*	*	*	*	*	*	*	*	*	*	*	*	*	*	*	*	*	*	*
!	!	!	!	!	!	!LO:TX:a:t=P:problem=shared beam	!	!	!	!	!	!	!	!	!	!	!	!	!	!	!	!	!	!	!	!	!
.	.	.	.	8f/	-je	8cc\J	.	.	.	.	.	.	.	.	.	.	.	.	.	.	.	.	.	.	.	.	.
8F\	.	8F\yy	.	8f/	Jak	8r	.	8r	.	4r	.	.	.	.	.	.	.	.	.	4r	4ryy	.	8f'</L	.	.	8ff'>\L	.
8r	.	8ryy	.	8a/	roz-	8c\	.	8f 8A/	.	.	.	.	.	.	.	.	.	.	.	.	.	.	8a'</J	.	.	8aa'>\J	.
*	*	*	*	*	*	*	*	*	*	*	*	*	*	*	*	*	*	*	*	*v	*v	*	*	*	*	*	*
=8	=8	=8	=8	=8	=8	=8	=8	=8	=8	=8	=8	=8	=8	=8	=8	=8	=8	=8	=8	=8	=8	=8	=8	=8	=8	=8
*	*	*	*	*	*	*	*	*	*	*	*	*	*	*	*	*	*	*	*	*	*	*^	*	*	*	*
.	.	.	.	(<8qa/	.	.	.	.	.	.	.	.	.	.	.	.	.	.	.	.	.	(<8qa/	.	.	.	(<8qaa/	.
8C/	.	8C/yy	.	8.g/)	-dzie-	8r	.	8r	.	2r	.	2r	.	2r	.	2r	.	2r	.	2r	.	8.g/L)	2re	.	2r	8.gg\L)	.
8r	.	8ryy	.	.	.	8c 8G/	.	8e 8B-/	.	.	.	.	.	.	.	.	.	.	.	.	.	.	.	.	.	.	.
.	.	.	.	16f#X/	-lać	.	.	.	.	.	.	.	.	.	.	.	.	.	.	.	.	16f#X/K	.	.	.	16ff#X'>\K	.
8C/	.	8C/yy	.	8g/	łą-	8r	.	8r	.	.	.	.	.	.	.	.	.	.	.	.	.	8g/	.	.	.	8gg'>\	.
8r	.	8ryy	.	8cc\	-czyć	8c 8G/	.	8e 8B-/	.	.	.	.	.	.	.	.	.	.	.	.	.	8cc/J	.	.	.	8ccc'>\J	.
!!LO:PB:g=original
*	*	*	*	*	*	*	*	*	*	*	*	*	*	*	*	*	*	*	*	*	*	*v	*v	*	*	*	*
=9	=9	=9	=9	=9	=9	=9	=9	=9	=9	=9	=9	=9	=9	=9	=9	=9	=9	=9	=9	=9	=9	=9	=9	=9	=9	=9
8F\	.	8F\yy	.	8g#X/	cia-	8r	.	8r	.	4r	.	2r	.	2r	.	2r	.	2r	.	4r	.	(<8g#X/L	.	2r	(>8gg#X\L	.
8r	.	8ryy	.	8a/	-ła	8c 8F/	.	8f 8A/	.	.	.	.	.	.	.	.	.	.	.	.	.	8a/J)	.	.	8aa\J)	.
8F\L	.	8F\Lyy	.	8f/	Jak	4r	.	8fL 8A/	.	8ff'>\L	.	.	.	.	.	.	.	.	.	8fL 8A/	.	4r	.	.	4r	.
8C\J	.	8C\Jyy	.	8gn/	się	.	.	8eJ 8c/	.	8gg'>\J	.	.	.	.	.	.	.	.	.	8gJ 8c/	.	.	.	.	.	.
=10	=10	=10	=10	=10	=10	=10	=10	=10	=10	=10	=10	=10	=10	=10	=10	=10	=10	=10	=10	=10	=10	=10	=10	=10	=10	=10
*	*	*	*	*	*	*	*	*	*	*	*	*	*	*	*	*	*	*	*	*^	*	*	*	*	*	*
.	.	.	.	.	.	.	.	.	.	(<32qqff/LLL	.	.	.	.	.	.	.	.	.	.	.	.	.	.	.	.	.
.	.	.	.	.	.	.	.	.	.	32qqgg/JJJ	.	.	.	.	.	.	.	.	.	.	.	.	.	.	.	.	.
*	*	*	*	*	*	*tremolo	*	*	*	*	*	*	*	*	*	*	*	*	*	*	*	*	*	*	*	*	*
4F\	.	4F\yy	.	8a/	gaz	32cc\LLL	.	4f 4A/	.	4aa\)	.	2r	.	2r	.	2r	.	2r	.	4a/	4f\	.	2r	.	2r	2r	.
.	.	.	.	.	.	32cc\	.	.	.	.	.	.	.	.	.	.	.	.	.	.	.	.	.	.	.	.	.
.	.	.	.	.	.	32cc\	.	.	.	.	.	.	.	.	.	.	.	.	.	.	.	.	.	.	.	.	.
.	.	.	.	.	.	32cc\JJ	.	.	.	.	.	.	.	.	.	.	.	.	.	.	.	.	.	.	.	.	.
*	*	*	*	*	*	*Xtremolo	*	*	*	*	*	*	*	*	*	*	*	*	*	*	*	*	*	*	*	*	*
!	!	!	!	!	!	!LO:TX:a:t=P:problem=shared beam	!	!	!	!	!	!	!	!	!	!	!	!	!	!	!	!	!	!	!	!	!
.	.	.	.	8f/	z re-	8cc\J	.	.	.	.	.	.	.	.	.	.	.	.	.	.	.	.	.	.	.	.	.
8F\L	.	8F\Lyy	.	8f/	-tor-	4r	.	8fL 8A/	.	8ff'>\L	.	.	.	.	.	.	.	.	.	8fL 8A/	4ryy	.	.	.	.	.	.
8C\J	.	8C\Jyy	.	8g/	-ty	.	.	8eJ 8c/	.	8gg'>\J	.	.	.	.	.	.	.	.	.	8gJ 8c/	.	.	.	.	.	.	.
=11	=11	=11	=11	=11	=11	=11	=11	=11	=11	=11	=11	=11	=11	=11	=11	=11	=11	=11	=11	=11	=11	=11	=11	=11	=11	=11	=11
*	*	*	*	*	*	*	*	*	*	*	*	*	*	*	*	*	*	*	*	*	*	*	*^	*	*	*	*
*	*	*	*	*	*	*tremolo	*	*	*	*	*	*	*	*	*	*	*	*	*	*	*	*	*	*	*	*	*	*
4F\	.	4F\yy	.	8a/	snu-	32cc\LLL	.	4f 4A/	.	(>8aa\L	.	2r	.	2r	.	2r	.	2r	.	4a/	4f\	.	4r	2re	.	2r	4r	.
.	.	.	.	.	.	32cc\	.	.	.	.	.	.	.	.	.	.	.	.	.	.	.	.	.	.	.	.	.	.
.	.	.	.	.	.	32cc\	.	.	.	.	.	.	.	.	.	.	.	.	.	.	.	.	.	.	.	.	.	.
.	.	.	.	.	.	32cc\JJ	.	.	.	.	.	.	.	.	.	.	.	.	.	.	.	.	.	.	.	.	.	.
*	*	*	*	*	*	*Xtremolo	*	*	*	*	*	*	*	*	*	*	*	*	*	*	*	*	*	*	*	*	*	*
!	!	!	!	!	!	!LO:TX:a:t=P:problem=shared beam	!	!	!	!	!	!	!	!	!	!	!	!	!	!	!	!	!	!	!	!	!	!
.	.	.	.	8f/	-je	8cc\J	.	.	.	8ff\J)	.	.	.	.	.	.	.	.	.	.	.	.	.	.	.	.	.	.
!	!	!	!	!	!	!	!	!	!	!	!	!	!	!	!	!	!	!	!	!	!	!	!	!	!	!	!	!LO:DY:b:rj
8F\	.	8F\yy	.	8f/	I	8r	.	8r	.	4r	.	.	.	.	.	.	.	.	.	4r	4ryy	.	8f/L	.	.	.	8ff'>\L	p
8r	.	8ryy	.	8a/	iak	8c\	.	8f 8A/	.	.	.	.	.	.	.	.	.	.	.	.	.	.	8a/J	.	.	.	8aa'>\J	.
*	*	*	*	*	*	*	*	*	*	*	*	*	*	*	*	*	*	*	*	*v	*v	*	*	*	*	*	*	*
=12	=12	=12	=12	=12	=12	=12	=12	=12	=12	=12	=12	=12	=12	=12	=12	=12	=12	=12	=12	=12	=12	=12	=12	=12	=12	=12	=12
8G\	.	8G\yy	.	8g/	sól	8r	.	8r	.	2r	.	2r	.	2r	.	2r	.	2r	.	2r	.	8g/L	2re	.	2r	8gg\L	.
8r	.	8ryy	.	8cc\	na	8c\	.	8e 8G/	.	.	.	.	.	.	.	.	.	.	.	.	.	8cc/J	.	.	.	8ccc\J	.
8GG/	.	8GG/yy	.	8dd\	kwa-	8r	.	8r	.	.	.	.	.	.	.	.	.	.	.	.	.	8dd/L	.	.	.	8ddd\L	.
8r	.	8ryy	.	8g/	-sy	8d 8Bn\	.	8f 8G/	.	.	.	.	.	.	.	.	.	.	.	.	.	8g/J	.	.	.	8gg\J	.
=13	=13	=13	=13	=13	=13	=13	=13	=13	=13	=13	=13	=13	=13	=13	=13	=13	=13	=13	=13	=13	=13	=13	=13	=13	=13	=13	=13
!	!	!	!	!	!	!	!	!	!	!LO:TX:a:t=P:problem=diminuendolike accent	!	!	!	!	!	!	!	!	!	!	!	!	!	!	!	!	!
!	!	!	!	!	!	!	!	!	!	!	!	!	!	!	!	!	!	!	!	!	!	!	!	!	!	!LO:TX:a:t=P:problem=diminuendolike accent	!
8C/	.	8C/yy	.	8ee\	dzia-	8r	.	8r	.	(>8ee^<\L	.	4r	.	4r	.	4r	.	4r	.	4r	.	8ee/L	4r	.	4r	(>8eee^<\L	.
8r	.	8ryy	.	8cc\	-ła,	8c\	.	8e 8G/	.	8cc\J)	.	.	.	.	.	.	.	.	.	.	.	8cc/J	.	.	.	8ccc\J)	.
!	!LO:DY:b:rj	!	!LO:DY:b:rj	!	!	!	!LO:DY:b:rj	!	!	!	!LO:DY:b:rj	!	!	!	!LO:DY:a:rj	!	!	!	!	!	!	!	!	!	!	!	!LO:DY:b:rj
8F\	f	8F\yy	fyy	4r	.	32r	f	8r	.	8a'</L	f	8r	.	8F\	f	8a/L	.	8F\	.	8r	.	8a 8f/L	4ryy	.	8ff\L	8aa\L	f
.	.	.	.	.	.	(>32c\LLL	.	.	.	.	.	.	.	.	.	.	.	.	.	.	.	.	.	.	.	.	.
.	.	.	.	.	.	32Bn\	.	.	.	.	.	.	.	.	.	.	.	.	.	.	.	.	.	.	.	.	.
.	.	.	.	.	.	32c\JJ)	.	.	.	.	.	.	.	.	.	.	.	.	.	.	.	.	.	.	.	.	.
8r	.	8ryy	.	.	.	8f'>\J	.	8f 8A/	.	8a'</J	.	8F\	.	8r	.	8a/J	.	8r	.	8a 8f\	.	8a 8f/J	.	.	8ff\J	8aa\J	.
!!LO:PB:g=original
=14	=14	=14	=14	=14	=14	=14	=14	=14	=14	=14	=14	=14	=14	=14	=14	=14	=14	=14	=14	=14	=14	=14	=14	=14	=14	=14	=14
8G\	.	8G\yy	.	2r	.	32r	.	8r	.	8g/L	.	8r	.	8E\	.	16g'</LL	.	8G\	.	8r	.	16g/LL	8rc	.	16ee'>\LL	16gg'>\LL	.
.	.	.	.	.	.	(>32c\LLL	.	.	.	.	.	.	.	.	.	.	.	.	.	.	.	.	.	.	.	.	.
.	.	.	.	.	.	32Bn\	.	.	.	.	.	.	.	.	.	(<16ee/	.	.	.	.	.	16ee/	.	.	(>16gg\	(>16eee\	.
.	.	.	.	.	.	32c\JJ)	.	.	.	.	.	.	.	.	.	.	.	.	.	.	.	.	.	.	.	.	.
8r	.	8ryy	.	.	.	8e'>\J	.	8e 8G/	.	8ccJ 8e/	.	8C/	.	8r	.	16dd/	.	8r	.	8g 8c\	.	16dd/	8e\	.	16ff\	16ddd\	.
.	.	.	.	.	.	.	.	.	.	.	.	.	.	.	.	16cc/JJ	.	.	.	.	.	16cc/JJ	.	.	16ee\JJ	16ccc\JJ	.
8GG/	.	8GG/yy	.	.	.	32r	.	8r	.	8r	.	8r	.	8EE/	.	16bn/LL	.	8GG/	.	8r	.	16bn/LL	8rc	.	8dd\L)	16bbn\LL	.
.	.	.	.	.	.	(<32G/LLL	.	.	.	.	.	.	.	.	.	.	.	.	.	.	.	.	.	.	.	.	.
.	.	.	.	.	.	32F#X/	.	.	.	.	.	.	.	.	.	16g/	.	.	.	.	.	16g/	.	.	.	16gg\	.
.	.	.	.	.	.	32G/JJ)	.	.	.	.	.	.	.	.	.	.	.	.	.	.	.	.	.	.	.	.	.
8r	.	8ryy	.	.	.	8Bn/J	.	8e 8G/	.	8bn 8d/	.	8F\	.	8r	.	16f/	.	8r	.	8g 8f\	.	16f/	8Bn\	.	8bn\J	16ff\	.
!	!	!	!	!	!	!	!	!	!	!	!	!	!	!	!	!	!	!	!	!	!	!	!	!	!	!LO:TX:t=P:problem=w źródle podwójna kreska taktowa zwęża się na dole do pojedynczej [dotyczy całej partytury]	!
.	.	.	.	.	.	.	.	.	.	.	.	.	.	.	.	16d/JJ)	.	.	.	.	.	16d/JJ	.	.	.	16ee\JJ)	.
=15||	=15||	=15||	=15||	=15||	=15||	=15||	=15||	=15||	=15||	=15||	=15||	=15||	=15||	=15||	=15||	=15||	=15||	=15||	=15||	=15||	=15||	=15||	=15||	=15||	=15||	=15||	=15||
*>C	*	*>C	*	*>C	*	*>C	*	*>C	*	*>C	*	*>C	*	*>C	*	*>C	*	*>C	*	*>C	*	*>C	*>C	*	*>C	*>C	*
!	!	!	!	!	!	!	!	!	!	!	!	!	!	!	!	!	!	!LO:TX:t=P:problem=mixed beam	!	!	!	!	!	!	!	!	!
8C/L	.	8C/Lyy	.	4r	.	8c/L	.	8eL 8G/	.	8ccL 8e/	.	8C/	.	8C/	.	8c/	.	8C/L	.	8g 8e\	.	8c/	8c\	.	8cc\	8cc\	.
8C/J	.	8C/Jyy	.	.	.	8C/J	.	8c/J	.	8c/J	.	8r	.	8r	.	8r	.	8c\J	.	8r	.	8re	8ryy	.	8r	8r	.
!	!	!	!	!	!	!	!	!	!	!	!	!	!	!	!	!	!	!	!	!	!	!	!	!	!	!	!LO:DY:b:rj
4r	.	4ryy	.	8cc\	Jej	4r	.	4r	.	4r	.	4r	.	4r	.	4r	.	4r	.	4r	.	8cc/L	4r	.	4r	8ccc'>\L	p
.	.	.	.	8cc\	za-	.	.	.	.	.	.	.	.	.	.	.	.	.	.	.	.	8cc/J	.	.	.	8ccc'>\J	.
=16	=16	=16	=16	=16	=16	=16	=16	=16	=16	=16	=16	=16	=16	=16	=16	=16	=16	=16	=16	=16	=16	=16	=16	=16	=16	=16	=16
!	!LO:DY:b	!	!LO:DY:b	!	!	!	!	!	!LO:DY:b:rj	!	!	!	!	!	!	!	!	!	!	!	!	!	!	!	!	!	!
8E-X\	fp	8E-X\yy	fpyy	8dd-X\	-da-	8r	.	8r	p	8r	.	2r	.	2r	.	2r	.	2r	.	2r	.	8dd-X/	2re	.	2r	8ddd-X\	.
!	!	!	!	!	!	!	!	!	!	!	!LO:DY:b:rj	!	!	!	!	!	!	!	!	!	!	!	!	!	!	!	!
8r	.	8ryy	.	8dd-\	-niom	8e-X 8d-X\	.	8g 8B-X/	.	8dd-X'>\L	p	.	.	.	.	.	.	.	.	.	.	8rdd	.	.	.	8ddd-'>\L	.
8E-\	.	8E-\yy	.	8b-X\	nikt	8r	.	8r	.	8b-X'>\	.	.	.	.	.	.	.	.	.	.	.	4rdd	.	.	.	8bb-'>\	.
8r	.	8ryy	.	8ee-X\	nie	8e- 8d-\	.	8g 8B-/	.	8ee-X'>\J	.	.	.	.	.	.	.	.	.	.	.	.	.	.	.	8eee-X'>\J	.
=17	=17	=17	=17	=17	=17	=17	=17	=17	=17	=17	=17	=17	=17	=17	=17	=17	=17	=17	=17	=17	=17	=17	=17	=17	=17	=17	=17
!	!	!	!	!	!	!	!	!	!	!LO:TX:a:t=P:problem=diminuendolike accent	!	!	!	!	!	!	!	!	!	!	!	!	!	!	!	!	!
!	!	!	!	!	!	!	!	!	!	!	!	!	!	!	!	!	!	!	!	!	!	!	!	!	!	!LO:TX:a:t=P:problem=diminuendolike accent	!
8A-X^<\	.	8A-X^<\yy	.	8bn\	prze-	8r	.	8r	.	(>8bn^<\L	.	2r	.	2r	.	2r	.	2r	.	2r	.	4r	2re	.	2r	(>8bbn^<\L	.
8r	.	8ryy	.	8cc\	-czy	8e-X 8A-X\	.	8a-X 8c/	.	8cc\J)	.	.	.	.	.	.	.	.	.	.	.	.	.	.	.	8ccc\J)	.
4r	.	4ryy	.	8a-X/	ſpa-	4r	.	4r	.	4r	.	.	.	.	.	.	.	.	.	.	.	8a-X/L	.	.	.	8aa-X'>\L	.
.	.	.	.	8a-/	-iać	.	.	.	.	.	.	.	.	.	.	.	.	.	.	.	.	8a-/J	.	.	.	8aa-'>\J	.
=18	=18	=18	=18	=18	=18	=18	=18	=18	=18	=18	=18	=18	=18	=18	=18	=18	=18	=18	=18	=18	=18	=18	=18	=18	=18	=18	=18
8C^</	.	8C^</yy	.	8b-/	lub	8r	.	8r	.	8r	.	2r	.	2r	.	2r	.	2r	.	2r	.	8b-X/	2re	.	2r	8bb-\	.
8r	.	8ryy	.	8b-/	roz-	8c 8G/	.	8en 8B-X/	.	8b-'</L	.	.	.	.	.	.	.	.	.	.	.	8rdd	.	.	.	8bb-\L	.
4r	.	4ryy	.	8g/	-łą-	8r	.	8r	.	8g'</	.	.	.	.	.	.	.	.	.	.	.	4rdd	.	.	.	8gg\	.
.	.	.	.	8cc\	-czać	8c 8G/	.	8e 8B-/	.	8cc'</J	.	.	.	.	.	.	.	.	.	.	.	.	.	.	.	8ccc\J	.
!!LO:PB:g=original
*	*	*	*	*	*	*	*	*	*	*	*	*	*	*	*	*	*	*	*	*	*	*v	*v	*	*	*	*
=19	=19	=19	=19	=19	=19	=19	=19	=19	=19	=19	=19	=19	=19	=19	=19	=19	=19	=19	=19	=19	=19	=19	=19	=19	=19	=19
!	!	!LO:TX:a:t=P:problem=w źródle unison kontunuowany i oznaczony jako //	!	!	!	!	!	!	!	!	!	!	!	!	!	!	!	!	!	!	!	!	!	!	!	!
8F\	.	8F\yy	.	8g/	rze-	8r	.	8r	.	(<8g/L	.	2r	.	2r	.	2r	.	2r	.	2r	.	4r	.	4r	(>8gg\L	.
8r	.	8ryy	.	8a-X/	-czy	8c 8F/	.	8f 8A-X/	.	8a-X/J)	.	.	.	.	.	.	.	.	.	.	.	.	.	.	8aa-X\J)	.
4r	.	4ryy	.	8f/	tę	4r	.	4r	.	4r	.	.	.	.	.	.	.	.	.	.	.	8f'</L	.	8ff'>\L	8ff'>\L	.
.	.	.	.	8g/	na-	.	.	.	.	.	.	.	.	.	.	.	.	.	.	.	.	8g'</J	.	8gg'>\J	8gg'>\J	.
=20	=20	=20	=20	=20	=20	=20	=20	=20	=20	=20	=20	=20	=20	=20	=20	=20	=20	=20	=20	=20	=20	=20	=20	=20	=20	=20
*^	*	*^	*	*	*	*	*	*	*	*	*	*	*	*	*	*	*	*	*	*	*	*	*	*	*	*
!	!	!	!	!	!	!	!	!	!	!	!	!	!	!	!	!	!	!	!	!	!	!	!	!	!	!LO:TX:a:Bi:t=Col FL.	!	!
.	.	.	.	.	.	.	.	.	.	.	.	.	.	.	.	.	.	.	.	.	.	.	.	(<32qqf/LLL	.	(y<32qqff/LLLyy	(<32qqff/LLL	.
.	.	.	.	.	.	.	.	.	.	.	.	.	.	.	.	.	.	.	.	.	.	.	.	32qqg/JJJ	.	32qqgg/JJJyy	32qqgg/JJJ	.
*tremolo	*	*	*tremolo	*	*	*	*	*tremolo	*	*tremolo	*	*tremolo	*	*tremolo	*	*	*	*	*	*	*	*	*	*	*	*	*	*
!	!	!LO:DY:b:rj	!	!	!LO:DY:b:rj	!	!	!	!	!	!	!	!	!	!LO:DY:b:rj	!	!LO:DY:b:rj	!	!	!	!LO:DY:b:rj	!	!LO:DY:b:rj	!	!	!	!	!
32D-X/LLL	4D-^<\	p	32D-X/LLLyy	4D-^<\yy	pyy	8a-X/	-u-	32d-X\LLL	.	32A-X/LLL	.	32f/LLL	.	32F\LLL	p	4D-X\	p	2r	.	4D-X^<\	p	4f 4F^</	p	8a-X/)	.	8aa-X\)yy	8aa-X\)	.
32D-/	.	.	32D-/yy	.	.	.	.	32d-\	.	32A-/	.	32f/	.	32F\	.	.	.	.	.	.	.	.	.	.	.	.	.	.
32D-/	.	.	32D-/yy	.	.	.	.	32d-\	.	32A-/	.	32f/	.	32F\	.	.	.	.	.	.	.	.	.	.	.	.	.	.
32D-/JJ	.	.	32D-/JJyy	.	.	.	.	32d-\JJ	.	32A-/JJ	.	32f/JJ	.	32F\JJ	.	.	.	.	.	.	.	.	.	.	.	.	.	.
*Xtremolo	*	*	*Xtremolo	*	*	*	*	*Xtremolo	*	*Xtremolo	*	*Xtremolo	*	*Xtremolo	*	*	*	*	*	*	*	*	*	*	*	*	*	*
!LO:TX:a:t=P:problem=shared beam	!	!	!LO:TX:a:t=P:problem=shared beam	!	!	!	!	!	!	!	!	!	!	!	!	!	!	!	!	!	!	!	!	!	!	!	!	!
!	!	!	!	!	!	!	!	!LO:TX:a:t=P:problem=shared beam	!	!LO:TX:a:t=P:problem=shared beam	!	!LO:TX:a:t=P:problem=shared beam	!	!LO:TX:a:t=P:problem=shared beam	!	!	!	!	!	!	!	!	!	!	!	!	!	!
8D-/J	.	.	8D-/Jyy	.	.	8f/	-kę,	8d-\J	.	8A-/J	.	8f/J	.	8F\J	.	.	.	.	.	.	.	.	.	8r	.	8ryy	8r	.
4rA	4rAA	.	4rAyy	4rAAyy	.	8f/	lecz	4r	.	4r	.	4r	.	4r	.	4r	.	.	.	4r	.	4r	.	8f'</L	.	8ff'>\Lyy	8ff'>\L	.
.	.	.	.	.	.	8g/	z os-	.	.	.	.	.	.	.	.	.	.	.	.	.	.	.	.	8g'</J	.	8gg'>\Jyy	8gg'>\J	.
=21	=21	=21	=21	=21	=21	=21	=21	=21	=21	=21	=21	=21	=21	=21	=21	=21	=21	=21	=21	=21	=21	=21	=21	=21	=21	=21	=21	=21
*	*	*	*	*	*	*	*	*^	*	*	*	*	*	*	*	*	*	*	*	*	*	*	*	*	*	*	*	*
.	.	.	.	.	.	.	.	.	.	.	.	.	.	.	.	.	.	.	.	.	.	.	.	.	(<32qqf/LLL	.	(y<32qqff/LLLyy	(<32qqff/LLL	.
.	.	.	.	.	.	.	.	.	.	.	.	.	.	.	.	.	.	.	.	.	.	.	.	.	32qqg/JJJ	.	32qqgg/JJJyy	32qqgg/JJJ	.
*tremolo	*	*	*tremolo	*	*	*	*	*tremolo	*	*	*tremolo	*	*tremolo	*	*tremolo	*	*	*	*	*	*	*	*	*	*	*	*	*	*
32C/LLL	4C^<\	.	32C/LLLyy	4C^<\yy	.	8a-X/	-troż-	32c\LLL	4ryy	.	32A-X/LLL	.	32f/LLL	.	32F\LLL	.	4C/	.	2r	.	4C/	.	4f 4F/	.	8a-X/)	.	8aa-X\)yy	8aa-X\)	.
32C/	.	.	32C/yy	.	.	.	.	32c\	.	.	32A-/	.	32f/	.	32F\	.	.	.	.	.	.	.	.	.	.	.	.	.	.
32C/	.	.	32C/yy	.	.	.	.	32c\	.	.	32A-/	.	32f/	.	32F\	.	.	.	.	.	.	.	.	.	.	.	.	.	.
32C/JJ	.	.	32C/JJyy	.	.	.	.	32c\JJ	.	.	32A-/JJ	.	32f/JJ	.	32F\JJ	.	.	.	.	.	.	.	.	.	.	.	.	.	.
*Xtremolo	*	*	*Xtremolo	*	*	*	*	*Xtremolo	*	*	*Xtremolo	*	*Xtremolo	*	*Xtremolo	*	*	*	*	*	*	*	*	*	*	*	*	*	*
!LO:TX:a:t=P:problem=shared beam	!	!	!LO:TX:a:t=P:problem=shared beam	!	!	!	!	!	!	!	!	!	!	!	!	!	!	!	!	!	!	!	!	!	!	!	!	!	!
!	!	!	!	!	!	!	!	!LO:TX:a:t=P:problem=shared beam	!	!	!LO:TX:a:t=P:problem=shared beam	!	!LO:TX:a:t=P:problem=shared beam	!	!LO:TX:a:t=P:problem=shared beam	!	!	!	!	!	!	!	!	!	!	!	!	!	!
8C/J	.	.	8C/Jyy	.	.	8f/	-na	8c\J	.	.	8A-/J	.	8f/J	.	8F\J	.	.	.	.	.	.	.	.	.	8r	.	8ryy	8r	.
4BBn/	4BBn\	.	4BBn/yy	4BBn\yy	.	8f/	na-	4d/	4Bn\	.	4dn/	.	8f/L	.	4r	.	4BBn/	.	.	.	4BBn/	.	4r	.	8f'>/L	.	8ff\Lyy	8ff\L	.
.	.	.	.	.	.	8g/	-wet	.	.	.	.	.	8g/J	.	.	.	.	.	.	.	.	.	.	.	8g'>/J	.	8gg\Jyy	8gg\J	.
*	*	*	*	*	*	*	*	*v	*v	*	*	*	*	*	*	*	*	*	*	*	*	*	*	*	*	*	*	*	*
=22	=22	=22	=22	=22	=22	=22	=22	=22	=22	=22	=22	=22	=22	=22	=22	=22	=22	=22	=22	=22	=22	=22	=22	=22	=22	=22	=22	=22
*	*	*	*	*	*	*	*	*	*	*	*	*	*	*	*	*	*	*	*	*	*	*	*	*^	*	*	*	*
8C/	8C\	.	8C/yy	8C\yy	.	8an/	w ży-	8c\	.	8f/	.	8an/	.	2r	.	8C/	.	2r	.	8C/	.	8r	.	8an/L	4r	.	8aan\Lyy	8aan\L	.
8r	8ryy	.	8ryy	8ryy	.	8f/	-ciu	8r	.	8r	.	8r	.	.	.	8r	.	.	.	8r	.	8aL 8f\	.	8f/	.	.	8ff\yy	8ff\	.
8C/	8C\	.	8C/yy	8C\yy	.	8.g/	u-	8c\	.	8e/	.	8g/	.	.	.	4r	.	.	.	4r	.	8gJ 8c\	.	8g/J	8e\	.	8gg\Jyy	8gg\J	.
8r	8ryy	.	8ryy	8ryy	.	.	.	8r	.	8r	.	8r	.	.	.	.	.	.	.	.	.	8r	.	8rdd	8re	.	8ryy	8r	.
.	.	.	.	.	.	16cc\	-żyć	.	.	.	.	.	.	.	.	.	.	.	.	.	.	.	.	.	.	.	.	.	.
*v	*v	*	*	*	*	*	*	*	*	*	*	*	*	*	*	*	*	*	*	*	*	*	*	*	*	*	*	*	*
*	*	*v	*v	*	*	*	*	*	*	*	*	*	*	*	*	*	*	*	*	*	*	*	*	*	*	*	*	*
=23	=23	=23	=23	=23	=23	=23	=23	=23	=23	=23	=23	=23	=23	=23	=23	=23	=23	=23	=23	=23	=23	=23	=23	=23	=23	=23	=23
8r	.	8ryy	.	8cc\	moż-	8r	.	8r	.	8r	.	8r	.	8r	.	8r	.	8r	.	8r	.	4rg	2re	.	4ryy	4r	.
!	!LO:DY:b	!	!LO:DY:b	!	!	!	!	!	!LO:DY:b	!	!LO:DY:b:rj	!	!	!	!LO:DY:b:rj	!	!	!	!LO:DY:b	!	!LO:DY:b	!	!	!	!	!	!
8F\	sf	8F\yy	sfyy	8f/	-na.	8f 8A\	.	8cc 8f/	sf	8ff 8a\	sf	8F\	.	8F\	f	8f/	.	8F\	sf	8f 8A/	sf	.	.	.	.	.	.
4r	.	4ryy	.	4r	.	4r	.	4r	.	4r	.	4r	.	4r	.	4r	.	4r	.	4r	.	8c'</L	.	.	8cc\Lyy	8cc\L	.
.	.	.	.	.	.	.	.	.	.	.	.	.	.	.	.	.	.	.	.	.	.	8c'</J	.	.	8cc\Jyy	8cc\J	.
!!LO:PB:g=original
*	*	*	*	*	*	*	*	*	*	*	*	*	*	*	*	*	*	*	*	*	*	*v	*v	*	*	*	*
=24	=24	=24	=24	=24	=24	=24	=24	=24	=24	=24	=24	=24	=24	=24	=24	=24	=24	=24	=24	=24	=24	=24	=24	=24	=24	=24
4r	.	4r	.	2r	.	4r	.	4r	.	4r	.	4r	.	2r	.	2r	.	4r	.	4r	.	(<32c/LLL	.	(y>32cc\LLLyy	(>32cc\LLL	.
.	.	.	.	.	.	.	.	.	.	.	.	.	.	.	.	.	.	.	.	.	.	32d/	.	32dd\yy	32dd\	.
.	.	.	.	.	.	.	.	.	.	.	.	.	.	.	.	.	.	.	.	.	.	32e/	.	32ee\yy	32ee\	.
.	.	.	.	.	.	.	.	.	.	.	.	.	.	.	.	.	.	.	.	.	.	32f/JJ	.	32ff\JJyy	32ff\JJ	.
.	.	.	.	.	.	.	.	.	.	.	.	.	.	.	.	.	.	.	.	.	.	8g/J)	.	8gg\J)yy	8gg\J)	.
*	*	*tremolo	*	*	*	*tremolo	*	*tremolo	*	*tremolo	*	*	*	*	*	*	*	*	*	*	*	*	*	*	*	*
!	!	!	!LO:DY:b:rj	!	!	!	!LO:DY:a:rj	!	!	!	!LO:DY:b:rj	!	!LO:DY:b:rj	!	!	!	!	!	!LO:DY:b:rj	!	!LO:DY:b:rj	!	!	!	!	!
8E\L	.	32E\LLL	p	.	.	32c\LLL	p	32g/LLL	.	32b-/LLL	p	4CT>/	p	.	.	.	.	8E\L	p	8b-L 8g\	p	4r	.	4ryy	4r	.
.	.	32E\	.	.	.	32c\	.	32g/	.	32b-/	.	.	.	.	.	.	.	.	.	.	.	.	.	.	.	.
.	.	32E\	.	.	.	32c\	.	32g/	.	32b-/	.	.	.	.	.	.	.	.	.	.	.	.	.	.	.	.
.	.	32E\	.	.	.	32c\	.	32g/	.	32b-/	.	.	.	.	.	.	.	.	.	.	.	.	.	.	.	.
8F\J	.	32F\	.	.	.	32c\	.	32f/	.	32a/	.	.	.	.	.	.	.	8F\J	.	8aJ 8f\	.	.	.	.	.	.
.	.	32F\	.	.	.	32c\	.	32f/	.	32a/	.	.	.	.	.	.	.	.	.	.	.	.	.	.	.	.
.	.	32F\	.	.	.	32c\	.	32f/	.	32a/	.	.	.	.	.	.	.	.	.	.	.	.	.	.	.	.
.	.	32F\JJJ	.	.	.	32c\JJJ	.	32f/JJJ	.	32a/JJJ	.	.	.	.	.	.	.	.	.	.	.	.	.	.	.	.
*	*	*Xtremolo	*	*	*	*Xtremolo	*	*Xtremolo	*	*Xtremolo	*	*	*	*	*	*	*	*	*	*	*	*	*	*	*	*
=25	=25	=25	=25	=25	=25	=25	=25	=25	=25	=25	=25	=25	=25	=25	=25	=25	=25	=25	=25	=25	=25	=25	=25	=25	=25	=25
8C/	.	8C/	.	2r	.	8c\	.	8e/	.	8g/	.	8C/	.	2r	.	2r	.	8C/	.	8g 8c/	.	4r	.	4ryy	4r	.
8r	.	8r	.	.	.	8r	.	8r	.	8r	.	8r	.	.	.	.	.	8r	.	8r	.	.	.	.	.	.
4r	.	4r	.	.	.	4r	.	4r	.	4r	.	4r	.	.	.	.	.	4r	.	4r	.	8c/L	.	8cc'>\Lyy	8cc'>\L	.
.	.	.	.	.	.	.	.	.	.	.	.	.	.	.	.	.	.	.	.	.	.	8c/J	.	8cc'>\Jyy	8cc'>\J	.
=26	=26	=26	=26	=26	=26	=26	=26	=26	=26	=26	=26	=26	=26	=26	=26	=26	=26	=26	=26	=26	=26	=26	=26	=26	=26	=26
4r	.	4r	.	2r	.	4r	.	4r	.	4r	.	4r	.	2r	.	2r	.	4r	.	4r	.	(<32cc/LLL	.	(y>32ccc\LLLyy	(>32ccc\LLL	.
.	.	.	.	.	.	.	.	.	.	.	.	.	.	.	.	.	.	.	.	.	.	32b-/	.	32bb-\yy	32bb-\	.
.	.	.	.	.	.	.	.	.	.	.	.	.	.	.	.	.	.	.	.	.	.	32a/	.	32aa\yy	32aa\	.
.	.	.	.	.	.	.	.	.	.	.	.	.	.	.	.	.	.	.	.	.	.	32g/JJ	.	32gg\JJyy	32gg\JJ	.
.	.	.	.	.	.	.	.	.	.	.	.	.	.	.	.	.	.	.	.	.	.	8f/J)	.	8ff\J)yy	8ff\J)	.
*	*	*tremolo	*	*	*	*tremolo	*	*tremolo	*	*tremolo	*	*	*	*	*	*	*	*	*	*	*	*	*	*	*	*
!	!	!	!	!	!	!	!	!	!	!	!	!	!LO:DY:b:rj	!	!	!	!	!	!	!	!	!	!	!	!	!
8F\L	.	32F\LLL	.	.	.	32c\LLL	.	32a/LLL	.	32cc/LLL	.	4CT>/	p	.	.	.	.	8F\L	.	8ccL 8a\	.	4r	.	4ryy	4r	.
.	.	32F\	.	.	.	32c\	.	32a/	.	32cc/	.	.	.	.	.	.	.	.	.	.	.	.	.	.	.	.
.	.	32F\	.	.	.	32c\	.	32a/	.	32cc/	.	.	.	.	.	.	.	.	.	.	.	.	.	.	.	.
.	.	32F\	.	.	.	32c\	.	32a/	.	32cc/	.	.	.	.	.	.	.	.	.	.	.	.	.	.	.	.
8C\J	.	32C\	.	.	.	32e\	.	32g/	.	32b-/	.	.	.	.	.	.	.	8C\J	.	8b-J 8g\	.	.	.	.	.	.
.	.	32C\	.	.	.	32e\	.	32g/	.	32b-/	.	.	.	.	.	.	.	.	.	.	.	.	.	.	.	.
.	.	32C\	.	.	.	32e\	.	32g/	.	32b-/	.	.	.	.	.	.	.	.	.	.	.	.	.	.	.	.
.	.	32C\JJJ	.	.	.	32e\JJJ	.	32g/JJJ	.	32b-/JJJ	.	.	.	.	.	.	.	.	.	.	.	.	.	.	.	.
*	*	*Xtremolo	*	*	*	*Xtremolo	*	*Xtremolo	*	*Xtremolo	*	*	*	*	*	*	*	*	*	*	*	*	*	*	*	*
=27	=27	=27	=27	=27	=27	=27	=27	=27	=27	=27	=27	=27	=27	=27	=27	=27	=27	=27	=27	=27	=27	=27	=27	=27	=27	=27
8F\	.	8F\	.	2r	.	8f\	.	8f/	.	8a/	.	8C/	.	4r	.	4r	.	8F\	.	8a 8f\	.	4r	.	4r	4r	.
8r	.	8r	.	.	.	8r	.	8r	.	8r	.	8r	.	.	.	.	.	8r	.	8r	.	.	.	.	.	.
!	!	!	!LO:DY:b:rj	!	!	!	!LO:DY:b:rj	!	!	!	!LO:DY:b:rj	!	!LO:DY:b:rj	!	!LO:DY:b:rj	!	!	!	!	!	!LO:DY:b:rj	!	!LO:DY:b:rj	!	!	!LO:DY:b:rj
8A\L	.	8A\L	f	.	.	8fL 8A\	f	8ccL 8f/	.	8ff\L	f	8F\L	f	8AA/L	f	8f/L	.	8A\L	.	8aL 8f\	f	8ffL 8cc\	f	8ff\L	8fff\L	f
8A\J	.	8A\J	.	.	.	8fJ 8A\	.	8ccJ 8f/	.	8ff\J	.	8F\J	.	8AA/J	.	8f/J	.	8A\J	.	8aJ 8f\	.	8ffJ 8cc\	.	8ff\J	8fff\J	.
=28	=28	=28	=28	=28	=28	=28	=28	=28	=28	=28	=28	=28	=28	=28	=28	=28	=28	=28	=28	=28	=28	=28	=28	=28	=28	=28
*	*	*	*	*	*	*	*	*	*	*	*	*	*	*	*	*	*	*	*	*^	*	*^	*	*	*	*
.	.	.	.	.	.	.	.	.	.	(<32qqee-X/LLL	.	.	.	.	.	.	.	.	.	.	.	.	32qqee-X/LLL	.	.	(<32qqee-X/LLL	(<32qqeee-X/LLL	.
.	.	.	.	.	.	.	.	.	.	32qqdd-X/	.	.	.	.	.	.	.	.	.	.	.	.	32qqdd-X/	.	.	32qqdd-X/	32qqddd-X/	.
.	.	.	.	.	.	.	.	.	.	32qqcc/JJJ	.	.	.	.	.	.	.	.	.	.	.	.	32qqcc/JJJ	.	.	32qqcc/JJJ	32qqccc/JJJ	.
!	!	!LO:TX:a:t=P::problem=w źródle unison do C(ontra)&colon; Baſsi oznaczony jako //	!	!	!	!	!	!	!	!	!	!	!	!	!	!	!	!	!	!	!	!	!	!	!	!	!	!
4B-\	.	4B-\yy	.	2r	.	4f 4B-\	.	4b- 4f/	.	4dd-X\)	.	4F\	.	4BB-/	.	4d-X/	.	4B-\	.	4b-/	4f\	.	4dd-X/	4b-\	.	4dd-X\)	4ddd-X\)	.
!LO:TX:t=P:problem=mixed beam	!	!LO:TX:t=P:problem=mixed beam	!	!	!	!	!	!	!	!	!	!	!	!	!	!	!	!LO:TX:t=P:problem=mixed beam	!	!	!	!	!	!	!	!	!	!
8c\L	.	8c\Lyy	.	.	.	8fL 8A\	.	8anL 8f/	.	8cc\L	.	8C/L	.	8C/L	.	8c/L	.	8c\L	.	8aL 8f\	4ryy	.	8cc/L	8a\L	.	8cc\L	8ccc\L	.
8C/J	.	8C/Jyy	.	.	.	8eJ 8G\	.	8b-J 8g/	.	8eeny\J	.	8C/J	.	8C/J	.	8e/J	.	8C/J	.	8gJ 8c\	.	.	8een/J	8b-\J	.	8een\J	8eeen\J	.
*	*	*	*	*	*	*	*	*	*	*	*	*	*	*	*	*	*	*	*	*v	*v	*	*	*	*	*	*	*
*	*	*	*	*	*	*	*	*	*	*	*	*	*	*	*	*	*	*	*	*	*	*v	*v	*	*	*	*
=29	=29	=29	=29	=29	=29	=29	=29	=29	=29	=29	=29	=29	=29	=29	=29	=29	=29	=29	=29	=29	=29	=29	=29	=29	=29	=29
8F\	.	8F\yy	.	4r;>	.	8f 8A\	.	8a 8f/	.	8ff\	.	8F\	.	8F\	.	8f/	.	8F\	.	8f 8A/	.	8ff 8a\	.	8ff\	8fff\	.
8r;>	.	8r;>yy	.	.	.	8r;>	.	8r;>	.	8r;>	.	8r;>	.	8r;>	.	8r;>	.	8r;>	.	8r;>	.	8r;>	.	8r;>	8r;>	.
==	==	==	==	==	==	==	==	==	==	==	==	==	==	==	==	==	==	==	==	==	==	==	==	==	==	==
*-	*-	*-	*-	*-	*-	*-	*-	*-	*-	*-	*-	*-	*-	*-	*-	*-	*-	*-	*-	*-	*-	*-	*-	*-	*-	*-
!!!system-decoration: {(s1,s2)}[(s3,s4,s5)][(s6,s7)][(s8)]{(s9,s10)}[(s11)][(s12)]{(s13,s14)}
!!!RDF**kern: > = above
!!!RDF**kern: < = below
!!!RDF**kern: | = vertical stroke
!!!RDF**kern: N = linked
!!!RDF**kern: i = editorial accidental
!!!EED: Wojciech Jakubiak-Danek
!!!EEV: 2021-05-08
!!!ENC: Tomasz Grochalski
!!!END: 2021-04-26
